X:1
T:Wholly Thine
T:Wholly Thine
T:Franklin Edson Belden
T:Franklin Edson Belden, 1886
T:Public Domain Courtesy of the Cyber Hymnal™
C:Franklin Edson Belden
Z:Public Domain
Z:Courtesy of the Cyber Hymnal™
%%score ( 1 2 ) ( 3 4 )
L:1/8
Q:1/4=110
M:4/4
K:G
V:1 treble 
V:2 treble 
V:3 bass 
V:4 bass 
V:1
 [B,G]>[CA] | [DB]2 [B,G]2 [B,D]2 [B,G]2 | [DB]2 [CA]2 [B,G]4 | [A,F]2 [B,G]2 [CA]4 | %4
w: 1.~I would|be, dear Sav- ior,|whol- ly Thine;|Teach me how,|
w: 2.~What is|world- ly plea- sure,|wealth or fame,|With- out Thee,|
w: 3.~As I|cast earth’s tran- sient|joys be- hind,|Come Thou near,|
 [B,G]2 [CA]2 !fermata![DB]2 | [B,G]>[CA] | [DB]2 [B,G]2 [DF]2 [DG]2 | [DB]2 [CA]2 [B,G]4 | %8
w: teach me how;|I would|do Thy will, O|Lord, not mine;|
w: with- out Thee?|I will|leave them all for|Thy dear name,|
w: come Thou near;|In Thy|pre- sence all in|all I find,|
 [CA]2 [B,G]2 [DB]2 [CA]2 | [B,G]6 ||"^Refrain" [Gd]>[GB] | [Gd]6 [GB]>G | [Gd]6 [Fc]>[GB] | %13
w: Help me, help me|now.||||
w: This my wealth shall|be.|Whol- ly|Thine, whol- ly|Thine, Whol- ly|
w: ’Tis my com- fort|here.||||
 [FA]2 [FA]2 G2 [FA]2 | [GB]6 [Gd]>[GB] | [Gd]6 [GB]>G | [GB]6 [Fc]>[GB] | [FA]2 G2 [GB]2 [FA]2 | %18
w: |||||
w: Thine, this is my|vow; Whol- ly|Thine, whol- ly|Thine, Whol- ly|Thine, O Lord, just|
w: |||||
 G6 |] %19
w: |
w: now.|
w: |
V:2
 x2 | x8 | x8 | x8 | x6 | x2 | x8 | x8 | x8 | x6 || x2 | x15/2 G/ | x8 | x4 G2 x2 | x8 | x15/2 G/ | %16
 x8 | x2 G2 x4 | G6 |] %19
V:3
 G,>G, | G,2 G,2 G,2 G,2 | [D,G,]2 [D,F,]2 [G,,G,]4 | D,2 D,2 [D,F,]4 | %4
w: ~ ~|~ ~ ~ ~|~ ~ ~|~ ~ ~|
 [D,G,]2 D,2 !fermata![G,,D,]2 | G,>G, | G,2 G,2 G,2 G,2 | [D,G,]2 [D,F,]2 [G,,G,]4 | %8
w: ~ ~ ~|~ ~|~ ~ ~ ~|~ ~ ~|
 [D,F,]2 [D,G,]2 [D,G,]2 [D,F,]2 | [G,,G,]6 || [G,B,]>G, | [G,B,]2 [G,B,]2 [G,B,]2 [G,D]>[G,B,] | %12
w: ~ ~ ~ ~|~|~ ~|~ O Lord, ~ ~|
 [G,D]2 [G,D]2 [G,D]2 [D,D]>[D,D] | [D,D]2 [C,D]2 [B,,D]2 D,2 | [G,D]6 [G,B,]>G, | %15
w: ~ ~ O Lord, ~|~ ~ ~ ~|~ ~ ~|
 [G,B,]2 [G,B,]2 [G,B,]2 [G,D]>[G,B,] | [G,D]2 [G,D]2 [G,D]2 [D,D]>[D,D] | %17
w: ~ O Lord, ~ ~|~ O Lord, * *|
 [D,D]2 [E,B,]2 [D,D]2 [D,C]2 | [G,,B,]6 |] %19
w: ||
V:4
 G,>G, | G,2 G,2 G,2 G,2 | x8 | D,2 D,2 x4 | x2 D,2 x2 | G,>G, | G,2 G,2 G,2 G,2 | x8 | x8 | x6 || %10
 x3/2 G,/ | x8 | x8 | x8 | x15/2 G,/ | x8 | x8 | x8 | x6 |] %19

